modules/coreui-icons-brand/icons/npm.svg

<svg version="1.1" xmlns="http://www.w3.org/2000/svg" width="32" height="32" viewBox="0 0 32 32">
<title>npm</title>
<path d="M0 9.781v10.667h8.885v1.771h7.115v-1.771h16v-10.667zM8.885 18.661h-1.771v-5.333h-1.781v5.333h-3.552v-7.104h7.104zM14.219 18.661v1.787h-3.552v-8.891h7.115v7.109h-3.563zM30.224 18.661h-1.776v-5.333h-1.781v5.333h-1.781v-5.333h-1.771v5.333h-3.563v-7.104h10.672zM14.219 13.333h1.781v3.557h-1.781z"></path>
</svg>

<svg xmlns="http://www.w3.org/2000/svg" width="32" height="32" viewBox="0 0 32 32"><path d="M0 9.781v10.667h8.885v1.771H16v-1.771h16V9.781zm8.885 8.88H7.114v-5.333H5.333v5.333H1.781v-7.104h7.104zm5.334 0v1.787h-3.552v-8.891h7.115v7.109h-3.563zm16.005 0h-1.776v-5.333h-1.781v5.333h-1.781v-5.333h-1.771v5.333h-3.563v-7.104h10.672zm-16.005-5.328H16v3.557h-1.781z"/></svg>
